packages/tokens/icons/folder/size24Px.svg

<svg viewBox="0 0 24 24" fill="none" xmlns="http://www.w3.org/2000/svg" width="1em" height="1em"><mask id="path-1-inside-1_979_6498" fill="currentColor"><path fill-rule="evenodd" clip-rule="evenodd" d="M8.43845 4C9.35618 4 10.1561 4.62459 10.3787 5.51493C10.45 5.80001 10.7061 6 11 6L20 6C21.1046 6 22 6.89543 22 8L22 18C22 19.1046 21.1046 20 20 20L4 20C2.89543 20 2 19.1046 2 18L2 7V6C2 4.89543 2.89543 4 4 4L8.43845 4Z"/></mask><path d="M9.40859 5.75746C9.2973 5.3123 8.89732 5 8.43845 5V3C9.81505 3 11.015 3.93689 11.3489 5.27239L9.40859 5.75746ZM20 7L11 7V5L20 5V7ZM21 8C21 7.44772 20.5523 7 20 7V5C21.6569 5 23 6.34315 23 8H21ZM21 18L21 8H23L23 18H21ZM20 19C20.5523 19 21 18.5523 21 18H23C23 19.6569 21.6569 21 20 21V19ZM4 19L20 19V21L4 21V19ZM3 18C3 18.5523 3.44771 19 4 19V21C2.34315 21 1 19.6569 1 18H3ZM3 7L3 18H1L1 7H3ZM3 6V7H1V6H3ZM4 5C3.44772 5 3 5.44772 3 6H1C1 4.34315 2.34315 3 4 3V5ZM8.43845 5L4 5V3L8.43845 3V5ZM11.3489 5.27239C11.3089 5.11231 11.165 5 11 5V7C10.2473 7 9.59115 6.48771 9.40859 5.75746L11.3489 5.27239Z" fill="currentColor" mask="url(#path-1-inside-1_979_6498)"/></svg>

<svg xmlns="http://www.w3.org/2000/svg" fill="none" viewBox="0 0 24 24" width="1em" height="1em"><mask id="iconsFolderSize24Px__a" fill="#fff"><path fill-rule="evenodd" d="M8.438 4a2 2 0 0 1 1.94 1.515A.64.64 0 0 0 11 6h9a2 2 0 0 1 2 2v10a2 2 0 0 1-2 2H4a2 2 0 0 1-2-2V6a2 2 0 0 1 2-2h4.438Z" clip-rule="evenodd"/></mask><path fill="currentColor" d="M9.409 5.757A1 1 0 0 0 8.439 5V3a3 3 0 0 1 2.91 2.272l-1.94.485ZM20 7h-9V5h9v2Zm1 1a1 1 0 0 0-1-1V5a3 3 0 0 1 3 3h-2Zm0 10V8h2v10h-2Zm-1 1a1 1 0 0 0 1-1h2a3 3 0 0 1-3 3v-2ZM4 19h16v2H4v-2Zm-1-1a1 1 0 0 0 1 1v2a3 3 0 0 1-3-3h2ZM3 7v11H1V7h2Zm0-1v1H1V6h2Zm1-1a1 1 0 0 0-1 1H1a3 3 0 0 1 3-3v2Zm4.438 0H4V3h4.438v2Zm2.91.272A.36.36 0 0 0 11 5v2a1.64 1.64 0 0 1-1.591-1.243l1.94-.485Z" mask="url(#iconsFolderSize24Px__a)"/></svg>
